X:551
T:Big Rory
C:Nigel Gatherer
Z:Nigel Gatherer
M:4/4
L:1/8
K:Bm
c2 B/c/B A3 z | e>A A2 cded | cABG A2 Bc | dBGB dBed |
c2 B/c/B A3 z | e>A A2 cdef | gfge dBGB  | ecdB A3  ||
e | aece Acef | g2  Bg dgBg | aece Aceg  | fdBe cAAe |
    aece Acef | g2  Bg dgB2 | c2 B/c/B Aceg |  fdBe A3 |]
<end>
<start>
